static/socials/github.svg

<svg width="407" height="407" viewBox="0 0 407 407" fill="none" xmlns="http://www.w3.org/2000/svg">
<path d="M200.874 4C87.0619 4 0 90.6598 0 204.807C0 296.076 57.2754 374.176 139.086 401.665C149.589 403.557 153.282 397.055 153.282 391.707C153.282 386.604 153.035 358.458 153.035 341.175C153.035 341.175 95.5957 353.52 83.5335 316.65C83.5335 316.65 74.179 292.701 60.7217 286.53C60.7217 286.53 41.9308 273.609 62.0347 273.855C62.0347 273.855 82.4668 275.501 93.7085 295.089C111.679 326.856 141.793 317.72 153.527 312.289C155.415 299.121 160.748 289.986 166.657 284.555C120.787 279.452 74.5072 272.786 74.5072 193.615C74.5072 170.982 80.7436 159.625 93.8726 145.142C91.7391 139.792 84.7643 117.736 96.0061 89.2608C113.156 83.9114 152.625 111.481 152.625 111.481C169.037 106.873 186.678 104.486 204.157 104.486C221.634 104.486 239.277 106.873 255.687 111.481C255.687 111.481 295.156 83.8291 312.307 89.2608C323.548 117.818 316.574 139.792 314.44 145.142C327.569 159.708 335.611 171.065 335.611 193.615C335.611 273.032 287.28 279.369 241.41 284.555C248.959 291.055 255.36 303.401 255.36 322.74C255.36 350.475 255.113 384.793 255.113 391.541C255.113 396.891 258.888 403.393 269.309 401.499C351.366 374.176 407 296.076 407 204.807C407 90.6598 314.687 4 200.874 4Z" fill="#D0D0D0"/>
</svg>

<svg xmlns="http://www.w3.org/2000/svg" width="407" height="407" viewBox="0 0 407 407"><path fill="#D0D0D0" d="M200.9 4C87 4 0 90.7 0 204.8c0 91.3 57.3 169.4 139 196.9 10.6 1.9 14.3-4.6 14.3-10 0-5.1-.3-33.2-.3-50.5 0 0-57.4 12.3-69.5-24.6 0 0-9.3-23.9-22.8-30 0 0-18.8-13 1.3-12.7 0 0 20.5 1.6 31.7 21.2 18 31.8 48 22.6 59.8 17.2a45.8 45.8 0 0 1 13.2-27.7c-46-5.1-92.2-11.8-92.2-91 0-22.6 6.2-34 19.4-48.5A78 78 0 0 1 96 89.3c17.2-5.4 56.6 22.2 56.6 22.2a192.3 192.3 0 0 1 103 0s39.6-27.7 56.7-22.2a78 78 0 0 1 2.1 55.8c13.2 14.6 21.2 26 21.2 48.5 0 79.4-48.3 85.8-94.2 91 7.6 6.5 14 18.8 14 38.1 0 27.8-.3 62-.3 68.8 0 5.4 3.8 11.9 14.2 10 82-27.3 137.7-105.4 137.7-196.7C407 90.7 314.7 4 200.9 4"/></svg>
